!!!!SEGMENT: pl-wnifc--6730-n--022_sowinski-wojciech--chants-religieux-de-la-pologne-op-93-saint-hiacinthe-nous-t-implorons-a-genoux.krn
!!!cenid: 18xx:4036
!!!COM: Sowiński, Wojciech
!!!COM-rismID: pe30008543
!!!CDT: ~1803-1880/03/05
!!!CNT:
!!!OTL: Chants religieux de la Pologne op. 93
!!!PDT: 1830
!!!AGN:
!!!SMS-siglum: PL-Wnifc
!!!SMS-shelfmark: 6730/n
!!!SMS-shelfwork: 022 W
!!!SMS-variant:
!!!SMS-altvar:
!!!NIFC-rismSourceID: 1001138221
!!!NIFC-rismChildID: 1001138245
!!!NIFC-islandoraID: nifc:213350
!!!URL-pdf-islandora: https://repozytorium.nifc.pl/islandora/object/nifc%3A213350/datastream/PDF/view
!!!URL-scan: https://polish.musicsources.pl/pl/lokalizacje/galeria/druki-muzyczne/16913 @EN{Scan on Polish Music Sources Website} @PL{Skany w portalu Dziedzictwo Muzyki Polskiej w otwartym dostępie}
!!!IIIF:
!!!ONB-nifc: UWAGA: str. 86-89
!!!AIN: 1 calto 2 organ 2 soprn
!!!key: C
**kern	**kern	**dynam	**kern	**text	**dynam	**kern	**text	**dynam	**kern	**text	**dynam
*part5	*part4	*part4	*part3	*part3	*part3	*part2	*part2	*part2	*part1	*part1	*part1
*staff5	*staff4	*	*staff3	*staff3	*	*staff2	*staff2	*	*staff1	*staff1	*
*I"Organo	*I"ORGUE.	*	*I"CONTRALTO.	*	*	*I"2o. DESSUS.	*	*	*I"1er. DESSUS.	*	*
*Iorgan	*Iorgan	*	*Icalto	*	*	*Isoprn	*	*	*Isoprn	*	*
*ICklav	*ICklav	*	*ICvox	*	*	*ICvox	*	*	*ICvox	*	*
*	*I'org	*	*I'CA	*	*	*I'2 D	*	*	*I'1 D	*	*
*clefF4	*clefG2	*	*clefG2	*	*	*clefG2	*	*	*clefG2	*	*
*k[]	*k[]	*	*k[]	*	*	*k[]	*	*	*k[]	*	*
*C:	*C:	*	*C:	*	*	*C:	*	*	*C:	*	*
*M4/4	*M4/4	*	*M4/4	*	*	*M4/4	*	*	*M4/4	*	*
*met(c)	*met(c)	*	*met(c)	*	*	*met(c)	*	*	*met(c)	*	*
=1	=1	=1	=1	=1	=1	=1	=1	=1	=1	=1	=1
!	!LO:TX:a:B:t=Allegro con moto.	!	!	!	!	!	!	!	!LO:TX:a:B:t=Allegro con moto.	!	!
2CC\ 2C	2c\ 2cc	f	1r	.	.	1r	.	.	1r	.	.
4EE\ 4E	4c\ 4g	.	.	.	.	.	.	.	.	.	.
4FF\ 4F	4c\ 4a	.	.	.	.	.	.	.	.	.	.
=2	=2	=2	=2	=2	=2	=2	=2	=2	=2	=2	=2
*	*^	*	*	*	*	*	*	*	*	*	*
2EE\ 2E	2g/	2.c\	.	1r	.	.	1r	.	.	1r	.	.
4DD\ 4D	4f/	.	.	.	.	.	.	.	.	.	.	.
4CC\ 4C	4e/	4c\	.	.	.	.	.	.	.	.	.	.
=3	=3	=3	=3	=3	=3	=3	=3	=3	=3	=3	=3	=3
*^	*	*	*	*	*	*	*	*	*	*	*	*
4G/	4BBB\ 4BB	4g/	2.d\	.	1r	.	.	1r	.	.	1r	.	.
4G/	2GG\	4g/	.	.	.	.	.	.	.	.	.	.	.
4F#X/	.	4a/	.	.	.	.	.	.	.	.	.	.	.
4Fn/	4GG\	4b/	4d\	.	.	.	.	.	.	.	.	.	.
*v	*v	*	*	*	*	*	*	*	*	*	*	*	*
*	*v	*v	*	*	*	*	*	*	*	*	*	*
=4	=4	=4	=4	=4	=4	=4	=4	=4	=4	=4	=4
2C\ 2E	(2cc\	.	1r	.	.	1r	.	.	1r	.	.
4C\ 4E	4c/)	.	.	.	.	.	.	.	.	.	.
4r	4r	.	.	.	.	.	.	.	.	.	.
=5	=5	=5	=5	=5	=5	=5	=5	=5	=5	=5	=5
!	!	!	!	!	!LO:DY:a	!	!	!LO:DY:a	!	!	!LO:DY:a
2C\ 2c	2e\ 2cc	f	2c/	Nous	f	2e/	Nous	f	2cc\	Nous	f
4C\ 4c	4e\ 4g	.	4c/	t'im-	.	4e/	t'im-	.	4g/	t'im-	.
4C\ 4c	4f\ 4a	.	4c/	-plo	.	4f/	-plo	.	4a/	-plo-	.
!LO:LB:g=original	!LO:LB:g=original	!	!LO:LB:g=original	!	!	!LO:LB:g=original	!	!	!LO:LB:g=original	!	!
=6	=6	=6	=6	=6	=6	=6	=6	=6	=6	=6	=6
2C\ 2c	2e/ 2g	.	2c/	-rons	.	2e/	-rons	.	2g/	-rons	.
4C\ 4c	4d/ 4f	.	4c/	à	.	4d/	à	.	4f/	à	.
4C\ 4c	4e/	.	4c/	ge-	.	4e/	ge-	.	4e/	ge-	.
=7	=7	=7	=7	=7	=7	=7	=7	=7	=7	=7	=7
*^	*	*	*	*	*	*	*	*	*	*	*
4B\	4G\	4d/ 4g	.	4B/	-noux	.	4d/	-noux	.	4g/	-noux	.
4G/	2GG\	4B/ 4g	<	4B/	dans	.	4g/	dans	.	4g/	dans	.
4F#X/	.	4c/ 4a	.	4c/	nos	.	4f#X/	nos	.	4a/	nos	.
4Fn/	4GG\	4d/ 4b	[[	4d/	pri-	.	4fn/	pri-	.	4b/	pri-	.
*v	*v	*	*	*	*	*	*	*	*	*	*	*
=8	=8	=8	=8	=8	=8	=8	=8	=8	=8	=8	=8
*	*^	*	*	*	*	*	*	*	*	*	*
2C\ 2E	2cc\	2c\	.	2c/	-è-	.	2e/	-è-	.	2cc\	-è-	.
4CC/ 4C	(8cc/L	4e\	>	2c/	-res	.	2e/	-res	.	2cc\	-res	.
.	8dd/J)	.	.	.	.	.	.	.	.	.	.	.
4r	4ee/	4ryy	]	.	.	.	.	.	.	.	.	.
*	*v	*v	*	*	*	*	*	*	*	*	*	*
=9	=9	=9	=9	=9	=9	=9	=9	=9	=9	=9	=9
!	!	!	!	!	!LO:DY:a	!	!	!LO:DY:a	!	!	!LO:DY:a
2C\ 2c	2e\ 2cc	p	2c/	Saint	p	2e/	Saint	p	2cc\	Saint	p
4C\ 4c	4e\ 4g	.	4c/	Hi-	.	4e/	Hi-	.	4g/	Hi-	.
.	8qb/	.	.	.	.	.	.	.	.	.	.
4C\ 4c	4f\ 4a	.	4c/	-a-	.	4f/	-a-	.	4a/	-a-	.
=10	=10	=10	=10	=10	=10	=10	=10	=10	=10	=10	=10
2C\ 2c	2e/ 2g	.	2c/	-cin-	.	2e/	-cin-	.	2g/	-cin-	.
4C\ 4c	4d/ 4f	.	4c/	-the	.	4d/	-the	.	4f/	-the	.
4C\ 4c	4e/	.	4c/	re	.	4e/	re	.	4e/	re-	.
!LO:LB:g=original	!LO:LB:g=original	!	!LO:LB:g=original	!	!	!LO:LB:g=original	!	!	!LO:LB:g=original	!	!
=11	=11	=11	=11	=11	=11	=11	=11	=11	=11	=11	=11
*^	*^	*	*	*	*	*	*	*	*	*	*
!	!	!	!	!	!	!	!LO:DY:a	!	!	!LO:DY:a	!	!	!LO:DY:a
4B\	4G\	4g/	4d/	.	4B/	-çois	<	4d/	-çois	<	4g/	-çois	<
4G/	2GG\	4g/	4B\ 4d	<	4B/	nos	.	4g/	nos	.	4g/	nos	.
4F#X/	.	4a/	4c\	.	4c/	coeurs	[	4f#X/	coeurs	[	4a/	coeurs	[
4Fn/	4GG\	4b/	4B\ 4d	.	4d/	sin-	.	4fn/	sin-	.	4b/	sin-	.
*v	*v	*	*	*	*	*	*	*	*	*	*	*	*
*	*v	*v	*	*	*	*	*	*	*	*	*	*
=12	=12	=12	=12	=12	=12	=12	=12	=12	=12	=12	=12
2C\ 2E	[2e\ [2cc	[	2c/	-cè-	.	2e/	-cè-	.	2cc\	-cè-	.
4CC/ 4C	8e\L] 8cc]	.	2c/	-res	.	2e/	-res	.	2cc\	-res	.
.	8b\	.	.	.	.	.	.	.	.	.	.
4r	8cc\	.	.	.	.	.	.	.	.	.	.
.	8dd\J	.	.	.	.	.	.	.	.	.	.
=13||	=13||	=13||	=13||	=13||	=13||	=13||	=13||	=13||	=13||	=13||	=13||
!	!	!	!	!	!LO:DY:a	!	!	!LO:DY:a	!	!	!LO:DY:a
2C\ 2c	2g^\ 2ee	f	2c/	Rem-	f	2g/	Rem-	f	2ee\	Rem-	f
!	!LO:TX:b:t=marcato.	!	!	!	!	!	!	!	!	!	!
4BB\ 4B	4g\ 4dd	.	4e/	-plis	.	4g/	-plis	.	4dd\	-plis	.
4AA\ 4A	4g\ 4cc	.	4e/	notre	.	4g/	notre	.	4cc\	notre	.
=14	=14	=14	=14	=14	=14	=14	=14	=14	=14	=14	=14
4GG\ 4G	4g\ 4dd	.	2g/	â-	.	(4b\	â-	.	(4dd\	â-	.
4G\ 4c	4g\ 4ee	.	.	.	.	4cc\)	.	.	4ee\)	.	.
2G\ 2B	2g\ 2ff	sf	2g^>/	-me	.	2dd^\	-me	.	2ff^\	-me	.
=15	=15	=15	=15	=15	=15	=15	=15	=15	=15	=15	=15
!	!	!LO:HP:t=cres	!	!	!LO:DY:a	!	!	!LO:DY:a	!	!	!LO:DY:a
4C\ 4c	4g\ 4ee	<	4cc\	De	p	4cc\	De	p	4ee\	De	p
!	!	!	!	!	!LO:DY:a	!	!	!LO:DY:a	!	!	!LO:DY:a
4GG\ 4G	4g\ 4dd	.	4g/	ta	<	4b\	ta	<	4dd\	ta	<
4EE\ 4E	4g\ 4cc	.	4e/	sain-	.	4cc\	sain-	.	4cc\	sain-	.
4GG\ 4G	4g\ 4dd	.	4g/	-te	.	4b\	-te	.	4dd\	-te	.
!LO:LB:g=original	!LO:LB:g=original	!	!LO:LB:g=original	!	!	!LO:LB:g=original	!	!	!LO:LB:g=original	!	!
=16	=16	=16	=16	=16	=16	=16	=16	=16	=16	=16	=16
*	*^	*	*	*	*	*	*	*	*	*	*
4C\ 4c	4ee\	4g\ 4cc	.	(4cc\	flam-	.	(4cc\	flam-	.	(4ee\	flam-	.
4GG\ 4G	4ff\	4g\ 4dd	.	4g\)	.	.	4dd\)	.	.	4ff\)	.	.
2CC/ 2C	2ee:/ 2gg:	4e:\ 4cc:	.	2c/	-me	[	2ee^\	-me	[	2gg^\	-me	[
.	.	4b-X\	.	.	.	.	.	.	.	.	.	.
*	*v	*v	*	*	*	*	*	*	*	*	*	*
=17	=17	=17	=17	=17	=17	=17	=17	=17	=17	=17	=17
!	!LO:TX:b:t=Large.	!	!LO:TX:a:t=Large.	!	!	!LO:TX:a:t=Large.	!	!	!LO:TX:a:t=Large.	!	!
2FF\ 2F	2a\ 2ff	ff	2f^>/	Sois	.	2a^\	Sois	.	2ff^\	Sois	.
2C\ 2c	2g\ 2ee	.	2c^>/	glo-	.	2g^\	glo-	.	2ee^\	glo-	.
=18	=18	=18	=18	=18	=18	=18	=18	=18	=18	=18	=18
4D^\ 4d	4f#X^\ 4a 4dd	.	4d^>/	-ri-	.	4f#X^>/	-ri-	.	4dd^\	-ri-	.
!	!	!	!	!	!	!	!	!	!LO:TX:a:t=rit.	!	!
4GG^\ 4G	4fn^\ 4g 4b 4dd	.	(8g/L	-fi-	.	(8g/L	-fi-	.	4dd^\	-fi-	.
.	.	.	8f/J)	.	.	8b/J)	.	.	.	.	.
2C^\ 2c	2e^\ 2g 2cc	.	2e^>/	-é	.	2cc^\	-é	.	2cc^\	-é	.
=19||	=19||	=19||	=19||	=19||	=19||	=19||	=19||	=19||	=19||	=19||	=19||
*	*^	*	*	*	*	*	*	*	*	*	*
2C\ 2c	4gg\	4ee\	f	1r	.	.	1r	.	.	1r	.	.
.	4ee\	4cc\	.	.	.	.	.	.	.	.	.	.
2AA\ 2A	2ee/	4cc\	.	.	.	.	.	.	.	.	.	.
.	.	8b\L	.	.	.	.	.	.	.	.	.	.
.	.	8cc\J	.	.	.	.	.	.	.	.	.	.
=20	=20	=20	=20	=20	=20	=20	=20	=20	=20	=20	=20	=20
2FF\ 2F	4dd/	[2a\	.	1r	.	.	1r	.	.	1r	.	.
.	4ee/	.	.	.	.	.	.	.	.	.	.	.
2GG\ 2G	2ff/	4a\]	.	.	.	.	.	.	.	.	.	.
.	.	4b\	.	.	.	.	.	.	.	.	.	.
!LO:LB:g=original	!LO:LB:g=original	!LO:LB:g=original	!	!LO:LB:g=original	!	!	!LO:LB:g=original	!	!	!LO:LB:g=original	!	!
*	*v	*v	*	*	*	*	*	*	*	*	*	*
=21	=21	=21	=21	=21	=21	=21	=21	=21	=21	=21	=21
4.CC/ 4.C	4.cc\ 4.ee	.	1r;	.	.	1r;	.	.	1r;	.	.
8C\ 8c	8e\ 8cc	.	.	.	.	.	.	.	.	.	.
4C\ 4c	4e\ 4cc	.	.	.	.	.	.	.	.	.	.
4r;	4r;	.	.	.	.	.	.	.	.	.	.
=22||	=22||	=22||	=22||	=22||	=22||	=22||	=22||	=22||	=22||	=22||	=22||
!	!	!	!	!	!LO:DY:a	!	!	!LO:DY:a	!LO:TX:a:t=2me. STROPHE.	!	!LO:DY:a
4CC/ 4C	4r	p	2e/	O	p	2g/	O	p	2cc\	O	p
4r	4e\ 4g 4cc	.	.	.	.	.	.	.	.	.	.
4C\ 4c	4r	.	4e/	sou-	.	4g/	sou-	.	4g/	sou-	.
4r	4f\ 4a 4cc	.	4f/	-tiens-	.	4f/	-tiens-	.	4a/	-tiens-	.
=23	=23	=23	=23	=23	=23	=23	=23	=23	=23	=23	=23
4CC/ 4C	4r	.	2e/	-nous	.	2g/	-nous	.	2g/	-nous	.
4r	(4e\ 4g 4cc	.	.	.	.	.	.	.	.	.	.
4C\ 4G 4B	4f\ 4g 4dd	.	4d/	dans	.	4b\	dans	.	4f/	dans	.
4C\ 4G 4c	4e\) 4g 4cc	.	4c/	les	.	4cc\	les	.	4e/	les	.
=24	=24	=24	=24	=24	=24	=24	=24	=24	=24	=24	=24
*	*^	*	*	*	*	*	*	*	*	*	*
2.GG\ 2.G	4r	4ryy	.	4B/	heu-	.	4g/	heu-	.	4g/	heu-	.
.	2dd/	4b\	.	4g/	-res	.	4g/	-res	.	4g/	-res	.
.	.	4cc\	.	4d/	dou-	.	4f#X/	dou-	.	4a/	dou-	.
4GG\ 4G	4dd\	4b\	.	4d/	-lou-	.	4fn/	-lou-	.	4b/	-lou-	.
*	*v	*v	*	*	*	*	*	*	*	*	*	*
=25	=25	=25	=25	=25	=25	=25	=25	=25	=25	=25	=25
2CC/ 2C	4r	.	2c/	-reu-	.	2e/	-reu-	.	2cc\	-reu-	.
.	([>4cc\ 4ee	.	.	.	.	.	.	.	.	.	.
2C\ 2c	4cc\] 4aa	.	2e/	-ses	.	2g/	-ses	.	2cc\	-ses	.
.	4cc\) 4ee 4gg	.	.	.	.	.	.	.	.	.	.
!LO:LB:g=original	!LO:LB:g=original	!	!LO:LB:g=original	!	!	!LO:LB:g=original	!	!	!LO:LB:g=original	!	!
=26	=26	=26	=26	=26	=26	=26	=26	=26	=26	=26	=26
4CC/ 4C	4r	.	2c/	Et	.	2e/	Et	.	2cc\	Et	.
4r	4e\ 4g 4cc	.	.	.	.	.	.	.	.	.	.
4C\ 4c	4r	.	4c/	re-	.	4e/	re-	.	4g/	re-	.
4r	4f\ 4a 4cc	.	4c/	-cois	.	4f/	-cois	.	4a/	-cois	.
=27	=27	=27	=27	=27	=27	=27	=27	=27	=27	=27	=27
4CC/ 4C	4r	.	(>4c/	nous	.	2e/	nous	.	2g/	nous	.
4r	(4e\ 4g 4cc	.	4e/)	.	.	.	.	.	.	.	.
4C\ 4G	4f\ 4g 4dd	.	4g/	dans	.	4d/	dans	.	4f/	dans	.
4C\ 4c	4e\) 4g 4cc	.	4cc/	les	.	4e/	les	.	4e/	les	.
=28	=28	=28	=28	=28	=28	=28	=28	=28	=28	=28	=28
2.GG\ 2.G	4r	.	4g/	sphè-	.	4d/	sphè-	.	4g/	sphè-	.
.	(4b\ 4dd	.	4B/	-res	.	4g/	-res	.	4g/	-res	.
.	4cc\ 4aa	.	4c/	bien	.	4f#X/	bien	.	4a/	bien-	.
4GG\ 4G	4b\) 4dd	.	4d/	heu-	.	4fn/	heu-	.	4b/	-heu-	.
=29	=29	=29	=29	=29	=29	=29	=29	=29	=29	=29	=29
2CC/ 2C	4r	.	2c/	-reu-	.	2e/	-reu-	.	2cc\	-reu-	.
.	(4ee\ 4gg	.	.	.	.	.	.	.	.	.	.
2C\ 2c	4cc\ 4ee	.	2c/	-ses	.	2e/	-ses	.	2cc\	-ses	.
.	4g\) 4cc	.	.	.	.	.	.	.	.	.	.
=30||	=30||	=30||	=30||	=30||	=30||	=30||	=30||	=30||	=30||	=30||	=30||
!	!	!	!	!	!	!	!	!LO:DY:a	!	!	!LO:DY:a
2CC/ 2C	8r	f	2c/	Rem-	.	2g/	Rem-	f	2ee\	Rem-	f
.	8g\L	.	.	.	.	.	.	.	.	.	.
.	8cc\	.	.	.	.	.	.	.	.	.	.
.	8ee\J	.	.	.	.	.	.	.	.	.	.
2EE/ 2E	4g\ 4dd	.	4e/	-plis	.	4g/	-plis	.	4dd\	-plis	.
.	4g\ 4cc	.	4e/	no-	.	4g/	no-	.	4cc\	no-	.
!LO:LB:g=original	!LO:LB:g=original	!	!LO:LB:g=original	!	!	!LO:LB:g=original	!	!	!LO:LB:g=original	!	!
=31	=31	=31	=31	=31	=31	=31	=31	=31	=31	=31	=31
2GG\ 2G	8b\L 8dd	.	2g/	-tre â-	.	(4b\	-tre â-	.	(4dd\	-tre â-	.
.	8g\	.	.	.	.	.	.	.	.	.	.
.	8cc\ 8ee	.	.	.	.	4cc\)	.	.	4ee\)	.	.
.	8g\J	.	.	.	.	.	.	.	.	.	.
2GGG/ 2GG	4dd\ 4ff	.	2g^/	-me	.	2dd\	-me	.	2ff\	-me	.
.	4b\ 4dd	.	.	.	.	.	.	.	.	.	.
=32	=32	=32	=32	=32	=32	=32	=32	=32	=32	=32	=32
4CC/ 4C	4g\ 4cc 4ee	.	4cc\	De	.	4cc\	De	.	4ee\	De	.
!	!	!LO:HP:t=cres	!	!	!	!	!	!LO:HP:t=cres	!	!	!LO:HP:t=cres
4GG\ 4G	4g\ 4b 4dd	<	4g/	ta	.	4b\	ta	<	4dd\	ta	<
4C\ 4c	4e\ 4g 4cc	.	4e/	sain-	.	4g\	sain-	.	4cc\	sain-	.
4GG\ 4G	4g\ 4b 4dd	.	4g/	-te	.	4b\	-te	.	4dd\	-te	.
=33	=33	=33	=33	=33	=33	=33	=33	=33	=33	=33	=33
*	*^	*	*	*	*	*	*	*	*	*	*
4CC/ 4C	4ee\	4g\ 4cc	.	(4cc\	flam-	.	4cc\	flam-	.	4ee\	flam-	.
4GGG/ 4GG	4ff\	4g\ 4dd	.	4g\	.	.	4dd\	.	.	4ff\	.	.
2CC/ 2C	2ee:/ 2gg:	4e:\ 4cc:	<	4cc\)	.	.	2ee^\	-me	.	2gg^\	-me	.
.	.	4b-X\	[	4b-X\	-me	.	.	.	.	.	.	.
*	*v	*v	*	*	*	*	*	*	*	*	*	*
=34	=34	=34	=34	=34	=34	=34	=34	=34	=34	=34	=34
!	!	!	!LO:TX:a:t=Large.	!	!LO:DY:a	!	!	!	!LO:TX:a:t=Large.	!	!LO:DY:a
2FF^\ 2F	2a^\ 2cc 2ff	.	2a^\	Sois	ff	2cc^\	Sois	.	2ff^\	Sois	ff
2C^\ 2c	2g^\ 2cc 2ee	.	2g^\	glo-	.	2cc^\	glo-	.	2ee^\	glo-	.
=35	=35	=35	=35	=35	=35	=35	=35	=35	=35	=35	=35
4DD^\ 4D	4f#X\ 4a 4cc 4dd	.	4f#X^>/	-ri-	.	4a^\	-ri-	.	4dd^\	-ri-	.
4GG^\ 4G	4fn\ 4g 4b 4dd	.	4fn^>/	-fi-	.	4b^\	-fi-	.	4dd^\	-fi-	.
2CC;/ 2C	2e;\ 2g 2cc 2ee	.	2e^>;/	-é	.	2cc^\	-é	.	2cc^;\	-é	.
!LO:LB:g=original	!LO:LB:g=original	!	!	!LO:LB:g=original	!	!	!LO:LB:g=original	!	!	!LO:LB:g=original	!
=36||	=36||	=36||	=36||	=36||	=36||	=36||	=36||	=36||	=36||	=36||	=36||
!	!LO:TX:b:t=a tempo	!	!	!	!	!	!	!	!	!	!
2EE\ 2E	2e\ 2g#X 2ee	f	1r	.	.	1r	.	.	1r	.	.
4FF#X\ 4F#X	4d\ 4a 4dd#X	.	.	.	.	.	.	.	.	.	.
4GG#X\ 4G#X	4d\ 4b 4ddn	.	.	.	.	.	.	.	.	.	.
=37	=37	=37	=37	=37	=37	=37	=37	=37	=37	=37	=37
!	!LO:TX:b:t=rit.	!	!	!	!	!	!	!	!	!	!
4AA\ 4A	4e\ 4a 4cc	.	1r	.	.	1r	.	.	1r	.	.
4GGn\ 4Gn	4f\ 4b 4dd	.	.	.	.	.	.	.	.	.	.
2C;<\ 2c	2e;\ 2cc	.	.	.	.	.	.	.	.	.	.
=38||	=38||	=38||	=38||	=38||	=38||	=38||	=38||	=38||	=38||	=38||	=38||
!	!	!	!	!	!	!	!	!LO:DY:a	!LO:TX:a:t=3me. STROPHE.	!	!LO:DY:a
4CC/ 4C	8r	f	1r	.	.	2e/	Sois	f	2cc\	Sois	f
.	(8cc\L	.	.	.	.	.	.	.	.	.	.
4r	8g\	.	.	.	.	.	.	.	.	.	.
.	8e\J)	.	.	.	.	.	.	.	.	.	.
4C\ 4c	8r	.	.	.	.	4e/	le	.	4g/	le	.
.	(8cc\L	.	.	.	.	.	.	.	.	.	.
4r	8a\	.	.	.	.	4f/	Pa-	.	4a/	Pa-	.
.	8f\J)	.	.	.	.	.	.	.	.	.	.
=39	=39	=39	=39	=39	=39	=39	=39	=39	=39	=39	=39
!	!	!	!	!	!LO:DY:a	!	!	!	!	!	!
4CC/ 4C	8r	.	2c/	Sois	f	2e/	-tron	.	2g/	-tron	.
.	(8cc\L	.	.	.	.	.	.	.	.	.	.
4r	8g\	.	.	.	.	.	.	.	.	.	.
.	8e\J)	.	.	.	.	.	.	.	.	.	.
4C\ 4G	(8f\L	.	4c/	le	.	4d/	de	.	4f/	de	.
.	8dd\	.	.	.	.	.	.	.	.	.	.
4C\ 4c	8e\	.	4c/	Pa-	.	4e/	tous	.	4e/	tous	.
.	8cc\J)	.	.	.	.	.	.	.	.	.	.
=40	=40	=40	=40	=40	=40	=40	=40	=40	=40	=40	=40
*^	*	*	*	*	*	*	*	*	*	*	*
!	!	!	!	!	!	!	!	!	!LO:DY:a	!	!	!LO:DY:a
2B/	[2G\	8r	.	2B/	-tron	.	4d/	les	<	4g/	les	<
.	.	(8g\L	.	.	.	.	.	.	.	.	.	.
.	.	8gg\	.	.	.	.	4g/	chré-	.	4g/	chré-	.
.	.	8g\J	.	.	.	.	.	.	.	.	.	.
4c/	2G\]	8ff#X\L	.	4c/	des	.	4f#X/	-tiens	.	4a/	-tiens	.
.	.	8a\	.	.	.	.	.	.	.	.	.	.
4d/	.	8ffn\	.	4d/	fi-	.	4fn/	fi-	[[	4b/	fi-	[[
.	.	8g\J)	.	.	.	.	.	.	.	.	.	.
!LO:LB:g=original	!	!LO:LB:g=original	!	!LO:LB:g=original	!	!	!LO:LB:g=original	!	!	!LO:LB:g=original	!	!
*v	*v	*	*	*	*	*	*	*	*	*	*	*
=41	=41	=41	=41	=41	=41	=41	=41	=41	=41	=41	=41
!	!	!	!	!	!	!	!	!LO:DY:a	!	!	!LO:DY:a
(2c\	8r	.	2e/	-dè-	.	2e/	-dè-	>	2cc\	-dè-	>
.	(8g\L	.	.	.	.	.	.	.	.	.	.
.	8ee\	.	.	.	.	.	.	.	.	.	.
.	8dd\J	.	.	.	.	.	.	.	.	.	.
4C\)	8cc\L	.	2e/	-les	.	2g/	-les	]	2cc\	-les	]
.	8b\	.	.	.	.	.	.	.	.	.	.
4r	8a\	.	.	.	.	.	.	.	.	.	.
.	8g\J)	.	.	.	.	.	.	.	.	.	.
=42	=42	=42	=42	=42	=42	=42	=42	=42	=42	=42	=42
4CC/ 4C	8r	.	2e/	Rap-	.	2g/	Rap-	.	2cc\	Rap-	.
.	8e/L	.	.	.	.	.	.	.	.	.	.
4r	8g/	.	.	.	.	.	.	.	.	.	.
.	8cc/J	.	.	.	.	.	.	.	.	.	.
4C\ 4c	8r	.	4c/	-pel-	.	4e/	-pel-	.	4g/	-pel-	.
.	8cc/L	.	.	.	.	.	.	.	.	.	.
4r	8a/	.	4c/	-le	.	4f/	-le	.	4a/	-le	.
.	8f/J	.	.	.	.	.	.	.	.	.	.
=43	=43	=43	=43	=43	=43	=43	=43	=43	=43	=43	=43
4CC/ 4C	8r	.	2c/	leur	.	2e/	leur	.	2g/	leur	.
.	8e/L	.	.	.	.	.	.	.	.	.	.
4r	8g/	.	.	.	.	.	.	.	.	.	.
.	8cc/J	.	.	.	.	.	.	.	.	.	.
4C\ 4G	8f/L	.	4c/	les	.	4b\	les	.	4f/	les	.
.	8dd/	.	.	.	.	.	.	.	.	.	.
4C\ 4c	8e/	.	4c/	vé-	.	4cc\	vé-	.	4e/	vé-	.
.	8cc/J	.	.	.	.	.	.	.	.	.	.
=44	=44	=44	=44	=44	=44	=44	=44	=44	=44	=44	=44
*^	*	*	*	*	*	*	*	*	*	*	*
!	!	!	!	!	!	!LO:DY:a	!	!	!LO:DY:a	!	!	!LO:DY:a
2ryy	2.G\	4g\ 4b	.	4B/	-ri-	<	4b/	-ri-	<	4g/	-ri-	<
.	.	4gg\	.	4B/	-tés	.	4g/	-tés	.	4g/	-tés	.
4A/	.	4cc\ 4ff#X	.	4c/	é-	.	4f#X/	é-	.	4a/	é-	.
4G/	4G\	4b\ 4ffn	.	4d/	-ter-	[[	4fn/	-ter-	[[	4b/	-ter-	[[
*v	*v	*	*	*	*	*	*	*	*	*	*	*
=45	=45	=45	=45	=45	=45	=45	=45	=45	=45	=45	=45
2C\ 2c	4cc\ 4ee	.	2e/	-nel-	.	2e/	-ne-	.	2cc\	-nel-	.
.	8gg\L	.	.	.	.	.	.	.	.	.	.
.	8ee\J	.	.	.	.	.	.	.	.	.	.
2CC/ 2C	8ccc\L	.	2c/	-les	.	2e/	-les	.	2cc\	-les	.
.	8gg\	.	.	.	.	.	.	.	.	.	.
.	8ee\	.	.	.	.	.	.	.	.	.	.
.	8cc\J	.	.	.	.	.	.	.	.	.	.
!LO:LB:g=original	!LO:LB:g=original	!	!LO:LB:g=original	!	!	!LO:LB:g=original	!	!	!LO:LB:g=original	!	!
=46||	=46||	=46||	=46||	=46||	=46||	=46||	=46||	=46||	=46||	=46||	=46||
*^	*^	*	*	*	*	*	*	*	*	*	*
!	!	!	!	!	!	!	!LO:DY:a	!	!	!LO:DY:a	!	!	!LO:DY:a
2c/	1C 1G	2ee/	8ee\L	f	2c/	Rem-	f	2g/	Rem-	f	2ee\	Rem-	f
.	.	.	8g\	.	.	.	.	.	.	.	.	.	.
.	.	.	8a\	.	.	.	.	.	.	.	.	.	.
.	.	.	8g\J	.	.	.	.	.	.	.	.	.	.
4B/	.	2ryy	8r	.	4d/	-plis	.	4g/	-plis	.	4dd\	-plis	.
.	.	.	8g\	.	.	.	.	.	.	.	.	.	.
4c/	.	.	8r	.	4e/	no-	.	4g/	no-	.	4cc\	no-	.
.	.	.	8g\	.	.	.	.	.	.	.	.	.	.
=47	=47	=47	=47	=47	=47	=47	=47	=47	=47	=47	=47	=47	=47
4G/ 4B	[2C\	2ryy	8dd\L	.	4f/	-tre â-	.	2g/	-tre â-	.	(4dd\	-tre â-	.
.	.	.	8g\	.	.	.	.	.	.	.	.	.	.
4c/	.	.	8ee\	.	4e/	.	.	.	.	.	4ee\)	.	.
.	.	.	8g\J	.	.	.	.	.	.	.	.	.	.
4d/	4C\]	2ff/	8ff\L	.	2d/	-me	.	2g/	-me	.	2ff^\	-me	.
.	.	.	8g\	.	.	.	.	.	.	.	.	.	.
4r	4ryy	.	8a\	.	.	.	.	.	.	.	.	.	.
.	.	.	8g\J	.	.	.	.	.	.	.	.	.	.
*v	*v	*	*	*	*	*	*	*	*	*	*	*	*
*	*v	*v	*	*	*	*	*	*	*	*	*	*
=48	=48	=48	=48	=48	=48	=48	=48	=48	=48	=48	=48
4CC/ 4C	8ee\L	.	4c/	De	.	4g/	De	.	4ee\	De	.
.	8g\	.	.	.	.	.	.	.	.	.	.
4GG\ 4G	8dd\	.	4g/	ta	.	4b\	ta	.	4dd\	ta	.
.	8g\J	.	.	.	.	.	.	.	.	.	.
!	!	!LO:HP:t=cres	!	!	!	!	!	!	!	!	!
4EE\ 4E	8cc\L	<	4e/	sain-	.	4cc\	sain-	.	4cc\	sain-	.
.	8g\	.	.	.	.	.	.	.	.	.	.
4GG\ 4G	8dd\	.	4g/	-te	.	4b\	-te	.	4dd\	-te	.
.	8g\J	.	.	.	.	.	.	.	.	.	.
=49	=49	=49	=49	=49	=49	=49	=49	=49	=49	=49	=49
4CC/ 4C	8cc\L 8ee	.	4cc\	flam-	.	4cc\	flam-	.	4ee\	flam-	.
.	8g\	.	.	.	.	.	.	.	.	.	.
4GGG/ 4GG	8dd\ 8ff	.	4g\	.	.	4dd\	.	.	4ff\	.	.
.	8g\J	.	.	.	.	.	.	.	.	.	.
2CC/ 2C	8gg\L	sf	2c/	-me	.	2ee\	-me	.	2gg^\	-me	ff
.	8ee\	.	.	.	.	.	.	.	.	.	.
.	8cc\	.	.	.	.	.	.	.	.	.	.
.	8b-X\J	.	.	.	.	.	.	.	.	.	.
!LO:LB:g=original	!LO:LB:g=original	!	!LO:LB:g=original	!	!	!LO:LB:g=original	!	!	!LO:LB:g=original	!	!
=50	=50	=50	=50	=50	=50	=50	=50	=50	=50	=50	=50
*	*^	*	*	*	*	*	*	*	*	*	*
!LO:TX:a:t=Large.	!	!	!	!	!	!	!	!	!	!LO:TX:a:t=Large.	!	!
2DD/ 2D	2ff/	4a\	ff	2d^>/	Sois	.	(4a^\	Sois	.	2ff^\	Sois	.
.	.	4bn\	.	.	.	.	4b\)	.	.	.	.	.
2EE/ 2E	2ee/	4cc\	.	2c^>/	glo-	.	2cc^\	glo-	.	2ee^\	glo-	.
.	.	4g\	.	.	.	.	.	.	.	.	.	.
=51	=51	=51	=51	=51	=51	=51	=51	=51	=51	=51	=51	=51
4FF#X\ 4F#X	4dd\	4d\ 4a 4cc	sf	4f#X^>/	-ri-	.	4a^\	-ri-	.	4dd^\	-ri-	.
4GG\ 4G	4dd/	8g\L	sf	4fn^>/	-fi-	.	4b^\	-fi-	.	4dd^\	-fi-	.
!	!LO:TX:b:t=rit.	!	!	!	!	!	!	!	!	!	!	!
.	.	8fn\J	.	.	.	.	.	.	.	.	.	.
2C\ 2c	2cc/	2e\	.	2e/	-é	.	2cc^\	-é	.	2cc^\	-é	.
*	*v	*v	*	*	*	*	*	*	*	*	*	*
=52||	=52||	=52||	=52||	=52||	=52||	=52||	=52||	=52||	=52||	=52||	=52||
2CC/ 2C	2cc\ 2ee 2gg 2ccc	f	1r	.	.	1r	.	.	1r	.	.
!	!LO:TX:b:t=élargissant.	!	!	!	!	!	!	!	!	!	!
2CC/ 2C	2cc\ 2ee 2gg 2bb-X	.	.	.	.	.	.	.	.	.	.
=53	=53	=53	=53	=53	=53	=53	=53	=53	=53	=53	=53
2FF\ 2F	2a\ 2cc 2ff 2aa	.	1r	.	.	1r	.	.	1r	.	.
4.FF\ 4.F	4.a\ 4.cc 4.ff 4.aa-X	.	.	.	.	.	.	.	.	.	.
8C\ 8c	8g\ 8cc 8ee 8gg	.	.	.	.	.	.	.	.	.	.
=54	=54	=54	=54	=54	=54	=54	=54	=54	=54	=54	=54
1C 1B;<	1g; 1cc 1ee 1gg	.	1r	.	.	1r	.	.	1r	.	.
==	==	==	==	==	==	==	==	==	==	==	==
*-	*-	*-	*-	*-	*-	*-	*-	*-	*-	*-	*-
!!!RDF**kern: > = above
!!!RDF**kern: < = below
!!!system-decoration: [(s1,s2,s3)][(s4,s5)]
!!!ENC: Andrzej Gręziak
!!!END: 2022-08-17
!!!ENC: Julita Ruszuk
!!!END: 2022-09-13
!!!YEC: Copyright 2022 Narodowy Instytut Fryderyka Chopina (https://polishscores.org)
!!!YEM: License CC-BY-4.0 (https://creativecommons.org/licenses/by/4.0)
